dist/img/icons/note.svg

<svg width="21" height="21" viewBox="0 0 21 21" fill="none" xmlns="http://www.w3.org/2000/svg">
<path d="M17.5 7.21875V15.75C17.5 18.375 15.9337 19.25 14 19.25H7C5.06625 19.25 3.5 18.375 3.5 15.75V7.21875C3.5 4.375 5.06625 3.71875 7 3.71875C7 4.26125 7.21875 4.75125 7.5775 5.11C7.93625 5.46875 8.42625 5.6875 8.96875 5.6875H12.0312C13.1162 5.6875 14 4.80375 14 3.71875C15.9337 3.71875 17.5 4.375 17.5 7.21875Z" stroke="#0B0B0B" stroke-width="1.5" stroke-linecap="round" stroke-linejoin="round"/>
<path d="M7 11.375H10.5M7 14.875H14M14 3.71875C14 4.80375 13.1162 5.6875 12.0312 5.6875H8.96875C8.42625 5.6875 7.93625 5.46875 7.5775 5.11C7.21875 4.75125 7 4.26125 7 3.71875C7 2.63375 7.88375 1.75 8.96875 1.75H12.0312C12.5737 1.75 13.0637 1.96875 13.4225 2.3275C13.7812 2.68625 14 3.17625 14 3.71875Z" stroke="#0B0B0B" stroke-width="1.5" stroke-linecap="round" stroke-linejoin="round"/>
</svg>

<svg width="21" height="21" viewBox="0 0 21 21" fill="none" xmlns="http://www.w3.org/2000/svg"><path d="M17.5 7.219v8.531c0 2.625-1.566 3.5-3.5 3.5H7c-1.934 0-3.5-.875-3.5-3.5V7.219c0-2.844 1.566-3.5 3.5-3.5 0 .542.219 1.032.577 1.391.36.359.85.577 1.392.577h3.062A1.972 1.972 0 0014 3.72c1.934 0 3.5.656 3.5 3.5z" stroke="#0B0B0B" stroke-width="1.5" stroke-linecap="round" stroke-linejoin="round"/><path d="M7 11.375h3.5m-3.5 3.5h7m0-11.156a1.972 1.972 0 01-1.969 1.969H8.97a1.957 1.957 0 01-1.391-.578A1.957 1.957 0 017 3.719c0-1.085.884-1.969 1.969-1.969h3.062c.543 0 1.033.219 1.391.578.36.358.578.848.578 1.39z" stroke="#0B0B0B" stroke-width="1.5" stroke-linecap="round" stroke-linejoin="round"/></svg>
